X:3037
T:Church Hill, The
R:jig
S:J\"orgen Fischer
Z:hn-jig-319
M:6/8
K:Ador
age ~e2B|e2B dBA|age fed|ege dBA:|
|:~B3 g3|aba geg|dBB ~g3|age dBA:|


